X:1
T:Title
%%score 1 { 2 | 3 }
L:1/8
Q:1/4=116
M:2/4
K:Eb
V:1 treble nm="Singstimme\nVoice"
V:2 treble nm="Pianoforte"
V:3 bass 
V:1
"^Allegretto espressione"!p! B | e2 c2 | B3 G | (AG) (Ac) |{c} B2 z B | G2 =A2 | (B>cd) e | d2 c2 | %8
 B2 z B | =A3 A | (Bdf) d | c3 F | B2 z B | B2 B2 | B3 B | e2 d2 | (cB) (AG) | F3 F | B2 D2 | %19
 E2 z2 | z2 !fermata!z :| %21
V:2
 z | [GBe]E[Ac]E | [GB]E[GB]E | [FA]E[FA]E | [DB]B,[DB]B, | [EG]B,[E=A]B, | [DB]B,[DB]B, | %7
 [FB]D[E=A]C | [DB]B,[DB]B, | [E=A]C[EA]C | [DB]B,[DB]B, | [E=A]C[EA]C | [DB]B,[DB]B, | %13
 [FB]B,[FB]B, | [GB]B,[GB]B, | [Be]E[Ad]D | [Ec]BAG | [EF]C[EF]C | [DF]B,[DF]B, | [EG]B,[EG]B, | %20
 [EG]2 !fermata!z :| %21
V:3
 z | [E,,E,]4 | [E,,E,]4 | [E,,E,]4 | [E,,E,]4 | E,4 | B,,4 | F,4 | B,,4 | [F,,F,]4 | [B,,F,]4 | %11
 [F,,F,]4 | [B,,F,]4 | [D,,D,]4 | [E,,E,]4 | G,,2 B,,2 | C,B,A,G, | A,,4 | B,,4 | [E,,E,]4 | %20
 [E,,E,]2 !fermata!z :| %21

